packages/app/public/assets/images/stackly-logo-icon.svg

<svg width="40" height="28" viewBox="0 0 40 28" fill="none" xmlns="http://www.w3.org/2000/svg">
<path d="M34.1481 6.10689C33.4654 3.6606 33.1241 2.43746 32.2991 1.62263C32.0299 1.35678 31.7273 1.12707 31.3989 0.939267C30.3923 0.363647 29.1224 0.363647 26.5827 0.363647H16.343C16.1933 0.363647 16.1184 0.363647 16.0551 0.367325C14.9498 0.431584 14.0678 1.31353 14.0036 2.41884C13.9999 2.4821 13.9999 2.55699 13.9999 2.70679C13.9999 2.77061 13.9999 2.80252 14.0003 2.83426C14.0065 3.36513 14.0901 3.89226 14.2486 4.39897C14.2581 4.42926 14.2679 4.45961 14.2877 4.52029L21.6363 27.0909H36.2122C37.802 27.0909 39.0908 25.8021 39.0908 24.2123C39.0908 23.9508 39.0552 23.6905 38.9849 23.4386L34.1481 6.10689Z" fill="#122404"/>
<path d="M27.2881 8.21167C26.8518 7.18343 26.6337 6.66932 26.2367 6.33371C26.1066 6.22377 25.9641 6.12943 25.8121 6.05263C25.3481 5.81819 24.7896 5.81819 23.6727 5.81819H8.81809V9.09092L16.4545 27.0909H33.909V25.8147C33.909 24.9307 33.909 24.4887 33.8389 24.0557C33.8156 23.9117 33.7865 23.7686 33.7517 23.6269C33.6471 23.2009 33.4745 22.794 33.1293 21.9802L27.2881 8.21167Z" fill="white"/>
<path d="M24.3635 5.81819H9.0787C7.88041 5.81819 6.909 6.7896 6.909 7.9879C6.909 8.7158 7.0555 9.43625 7.33979 10.1063L14.5454 27.0909H31.9999V25.8147C31.9999 24.9307 31.9999 24.4887 31.9298 24.0557C31.9065 23.9117 31.8774 23.7686 31.8426 23.6269C31.738 23.2009 31.5654 22.794 31.2202 21.9802L24.3635 5.81819Z" fill="#6EB436"/>
<path d="M21.4002 13.2676C20.9126 12.4049 20.6688 11.9736 20.2917 11.6965C20.1678 11.6054 20.0346 11.5277 19.8943 11.4646C19.4676 11.2727 18.9721 11.2727 17.9812 11.2727H9.36355V14.5455L16.4545 27.0909H27.3635V26.4009C27.3635 25.2602 27.3635 24.6898 27.2485 24.1385C27.2102 23.9553 27.1626 23.7743 27.1058 23.596C26.9347 23.0594 26.654 22.5629 26.0927 21.5698L21.4002 13.2676Z" fill="white"/>
<path d="M18.3635 11.2727H2.88334C1.79294 11.2727 0.909 12.1567 0.909 13.2471C0.909 14.0982 1.12908 14.9348 1.54788 15.6758L3.48986 19.1116C5.44017 22.5622 6.41533 24.2874 7.92353 25.3959C8.41922 25.7602 8.95205 26.0711 9.51312 26.3234C11.2202 27.0909 13.202 27.0909 17.1656 27.0909H25.4545V26.4009C25.4545 25.2602 25.4545 24.6898 25.3394 24.1385C25.3011 23.9553 25.2535 23.7743 25.1967 23.596C25.0256 23.0594 24.7449 22.5629 24.1836 21.5698L18.3635 11.2727Z" fill="#A2E771"/>
</svg>

<svg width="40" height="28" fill="none" xmlns="http://www.w3.org/2000/svg"><path d="M34.148 6.107c-.683-2.446-1.024-3.67-1.849-4.484a4.365 4.365 0 0 0-.9-.684C30.392.364 29.122.364 26.583.364h-10.24c-.15 0-.225 0-.288.003a2.182 2.182 0 0 0-2.051 2.052C14 2.482 14 2.557 14 2.707v.127a5.455 5.455 0 0 0 .288 1.686l7.348 22.57h14.576a2.879 2.879 0 0 0 2.773-3.651L34.148 6.107Z" fill="#122404"/><path d="M27.288 8.212c-.436-1.029-.654-1.543-1.051-1.878a2.183 2.183 0 0 0-.425-.281c-.464-.235-1.022-.235-2.14-.235H8.819v3.273l7.636 18H33.91v-1.276c0-.884 0-1.326-.07-1.76a5.444 5.444 0 0 0-.087-.428c-.105-.426-.278-.833-.623-1.647L27.29 8.212Z" fill="#fff"/><path d="M24.363 5.818H9.08a2.17 2.17 0 0 0-2.17 2.17c0 .728.147 1.448.43 2.118l7.206 16.985H32v-1.276c0-.884 0-1.326-.07-1.76a5.444 5.444 0 0 0-.087-.428c-.105-.426-.278-.833-.623-1.647L24.363 5.818Z" fill="#6EB436"/><path d="M21.4 13.268c-.487-.863-.731-1.294-1.108-1.572a2.18 2.18 0 0 0-.398-.231c-.426-.192-.922-.192-1.913-.192H9.364v3.273l7.09 12.545h10.91v-.69c0-1.14 0-1.711-.116-2.262a5.484 5.484 0 0 0-.142-.543c-.171-.537-.452-1.033-1.013-2.026L21.4 13.268Z" fill="#fff"/><path d="M18.363 11.273H2.883c-1.09 0-1.974.884-1.974 1.974 0 .851.22 1.688.639 2.429l1.942 3.436c1.95 3.45 2.925 5.175 4.434 6.284a8.73 8.73 0 0 0 1.59.927c1.706.768 3.688.768 7.652.768h8.288v-.69c0-1.14 0-1.711-.115-2.262a5.484 5.484 0 0 0-.142-.543c-.171-.537-.452-1.033-1.013-2.026l-5.82-10.297Z" fill="#A2E771"/></svg>
